X: 8
T: Hornpipe
R: hornpipe, reel
M: C|
L: 1/8
N: This tune is unidentified - one for the hornpipe enthusiasts.
Z: 2010 John Chambers <jc:trillian.mit.edu>
B: Anonymous manuscript tune book (1800-1840) p.7
F: http://www.asaplive.com/archive/browse_by_collection.asp
N: The asaplive.com web site is complex, and links to its files don't usually work.
K: G
dc | BcdB GBdg | fgaf d2Bd | .c(ag).c .B(gd).B | A2A2 A2dc | BcdB GBdg |
fgaf dfad' | ^c'bag fed"(#)"c | d2d2 d2 :||: Bc | dBgd bgdB | cAfc afdc |
Bdgf edcB | A2A2 A2D2 | GBdg bgbg | efge d2c2 | Bdgb c'afa | g2g2 g2 :|


%%sep 5 1 500

